public/click.svg

<svg width="70" height="69" viewBox="0 0 70 69" fill="none" xmlns="http://www.w3.org/2000/svg">
<circle cx="24.5" cy="24.5" r="19.5" fill="#003837" fill-opacity="0.5"/>
<path d="M53.0685 63.4732C52.6856 63.856 52.1664 64.071 51.625 64.071C51.0836 64.071 50.5644 63.856 50.1816 63.4732L46.9435 60.2351C46.5607 59.8523 46.3457 59.3331 46.3457 58.7917C46.3457 58.2503 46.5607 57.7311 46.9435 57.3482L58.3482 45.9435C58.7311 45.5607 59.2503 45.3457 59.7917 45.3457C60.3331 45.3457 60.8523 45.5607 61.2351 45.9435L64.4732 49.1816C64.856 49.5644 65.071 50.0836 65.071 50.625C65.071 51.1664 64.856 51.6856 64.4732 52.0685L53.0685 63.4732Z" stroke="black" stroke-width="1.66667" stroke-linecap="round" stroke-linejoin="round"/>
<path d="M57.7502 46.5416L54.9429 32.5072C54.8665 32.1253 54.6826 31.7733 54.4127 31.4926C54.1428 31.2119 53.7983 31.0142 53.4198 30.9228L27.605 24.1404C27.2649 24.0582 26.9094 24.0648 26.5725 24.1595C26.2357 24.2542 25.9289 24.4338 25.6815 24.6812C25.4341 24.9286 25.2544 25.2355 25.1597 25.5723C25.065 25.9091 25.0585 26.2646 25.1407 26.6047L31.9231 52.4196C32.0144 52.7981 32.2121 53.1426 32.4928 53.4125C32.7736 53.6823 33.1256 53.8663 33.5074 53.9426L47.5418 56.7499" stroke="black" stroke-width="1.66667" stroke-linecap="round" stroke-linejoin="round"/>
<path d="M25.6958 24.6958L40.5714 39.5714" stroke="black" stroke-width="1.66667" stroke-linecap="round" stroke-linejoin="round"/>
<path d="M43.4583 46.5417C45.7135 46.5417 47.5417 44.7135 47.5417 42.4583C47.5417 40.2032 45.7135 38.375 43.4583 38.375C41.2032 38.375 39.375 40.2032 39.375 42.4583C39.375 44.7135 41.2032 46.5417 43.4583 46.5417Z" stroke="black" stroke-width="1.66667" stroke-linecap="round" stroke-linejoin="round"/>
<path d="M48.2872 25.2385C48.6743 25.2505 48.999 24.9463 48.9999 24.5589C49.011 19.9568 47.7254 15.4393 45.2836 11.5272C42.7178 7.41662 38.9907 4.15917 34.5736 2.1668C30.1565 0.17442 25.2478 -0.463393 20.4683 0.334011C15.6887 1.13142 11.2529 3.32822 7.72182 6.64663C4.19076 9.96504 1.72302 14.256 0.630654 18.9769C-0.461706 23.6978 -0.129623 28.6367 1.58491 33.1688C3.29944 37.701 6.31942 41.623 10.2629 44.4388C14.016 47.1186 18.4451 48.682 23.039 48.9564C23.4257 48.9795 23.7495 48.6743 23.7615 48.2872C23.7735 47.9 23.4692 47.5775 23.0826 47.5537C18.766 47.2884 14.6053 45.8158 11.0781 43.2972C7.36035 40.6426 4.51328 36.9452 2.89691 32.6725C1.28054 28.3998 0.967475 23.7438 1.99729 19.2931C3.02711 14.8425 5.35356 10.7972 8.68245 7.66883C12.0113 4.54041 16.1932 2.46938 20.6991 1.71763C25.205 0.965885 29.8327 1.56718 33.9969 3.44548C38.1611 5.32378 41.6747 8.39473 44.0936 12.27C46.3885 15.9467 47.6002 20.1907 47.5973 24.5154C47.597 24.9028 47.9 25.2265 48.2872 25.2385Z" fill="black"/>
</svg>

<svg xmlns="http://www.w3.org/2000/svg" width="70" height="69" fill="none" viewBox="0 0 70 69"><circle cx="24.5" cy="24.5" r="19.5" fill="#003837" fill-opacity=".5"/><path stroke="#000" stroke-linecap="round" stroke-linejoin="round" stroke-width="1.667" d="M53.069 63.473a2.04 2.04 0 0 1-2.887 0l-3.239-3.238a2.04 2.04 0 0 1 0-2.887l11.405-11.404a2.04 2.04 0 0 1 2.887 0l3.238 3.238a2.04 2.04 0 0 1 0 2.886z"/><path stroke="#000" stroke-linecap="round" stroke-linejoin="round" stroke-width="1.667" d="m57.75 46.542-2.807-14.035a2.04 2.04 0 0 0-1.523-1.584L27.605 24.14a2.042 2.042 0 0 0-2.464 2.465l6.782 25.815a2.04 2.04 0 0 0 1.584 1.523l14.035 2.807M25.696 24.696 40.57 39.57"/><path stroke="#000" stroke-linecap="round" stroke-linejoin="round" stroke-width="1.667" d="M43.458 46.542a4.083 4.083 0 1 0 0-8.167 4.083 4.083 0 0 0 0 8.167"/><path fill="#000" d="M48.287 25.239a.686.686 0 0 0 .713-.68 24.5 24.5 0 1 0-25.961 24.397.686.686 0 0 0 .723-.669.72.72 0 0 0-.68-.733 23.096 23.096 0 1 1 24.515-23.039c0 .388.303.712.69.723"/></svg>
